X: 29147
T: Never
R: waltz
M: 3/4
K: Adorian
A3cd2|e3de2|a4g2|e6|A3cd2|e3de2|g4A2|B6|
A3cd2|e3de2|b4a2|e6|A3cd2|E4G2|A6-|A6:|
|:c'3ba2|b3ge2|a3gf2|g6|e3fg2|a3bc'2|ab5-|b6|
c'3ba2|b3ge2|a3gf2|e6|A3cd2|E4G2|A6-|A6:|

